img/hero/links/telegram.svg

<svg width="20" height="20" viewBox="0 0 20 20" fill="none" xmlns="http://www.w3.org/2000/svg">
<path fill-rule="evenodd" clip-rule="evenodd" d="M10 20C15.5228 20 20 15.5228 20 10C20 4.47715 15.5228 0 10 0C4.47715 0 0 4.47715 0 10C0 15.5228 4.47715 20 10 20ZM10.3583 7.38244C9.3857 7.787 7.44177 8.62433 4.52657 9.89444C4.05318 10.0827 3.80521 10.2669 3.78263 10.4469C3.74448 10.7513 4.12559 10.8711 4.64455 11.0343C4.71514 11.0565 4.78829 11.0795 4.86327 11.1038C5.37386 11.2698 6.06068 11.464 6.41773 11.4717C6.74161 11.4787 7.1031 11.3452 7.50219 11.0711C10.226 9.23251 11.632 8.30318 11.7202 8.28314C11.7825 8.26901 11.8688 8.25124 11.9273 8.30321C11.9858 8.35518 11.98 8.4536 11.9738 8.48001C11.9361 8.64095 10.4401 10.0317 9.66593 10.7515C9.42458 10.9759 9.25339 11.135 9.21839 11.1714C9.13999 11.2528 9.0601 11.3298 8.98331 11.4038C8.50896 11.8611 8.15325 12.204 9.003 12.764C9.41135 13.0331 9.73812 13.2556 10.0641 13.4776C10.4201 13.7201 10.7752 13.9619 11.2347 14.2631C11.3517 14.3398 11.4635 14.4195 11.5724 14.4971C11.9867 14.7925 12.3589 15.0579 12.8188 15.0155C13.086 14.991 13.362 14.7397 13.5022 13.9903C13.8335 12.2193 14.4847 8.38205 14.6352 6.80081C14.6484 6.66228 14.6318 6.48498 14.6185 6.40715C14.6051 6.32932 14.5773 6.21842 14.4761 6.13633C14.3563 6.03911 14.1714 6.01861 14.0886 6.02007C13.7125 6.0267 13.1355 6.22735 10.3583 7.38244Z" fill="white"/>
</svg>

<svg width="20" height="20" fill="none" xmlns="http://www.w3.org/2000/svg"><path fill-rule="evenodd" clip-rule="evenodd" d="M10 20c5.523 0 10-4.477 10-10S15.523 0 10 0 0 4.477 0 10s4.477 10 10 10Zm.358-12.618c-.972.405-2.916 1.242-5.831 2.512-.474.189-.722.373-.744.553-.039.304.343.424.862.587l.218.07c.51.166 1.198.36 1.555.368.324.007.685-.127 1.084-.4 2.724-1.84 4.13-2.769 4.218-2.789.063-.014.149-.032.207.02.059.052.053.15.047.177-.038.16-1.534 1.552-2.308 2.271-.241.225-.413.384-.448.42a8.817 8.817 0 0 1-.235.233c-.474.457-.83.8.02 1.36.408.27.735.492 1.061.714.356.242.711.484 1.17.785.118.077.23.156.338.234.415.296.787.56 1.247.518.267-.024.543-.275.683-1.025.332-1.77.983-5.608 1.133-7.19a1.764 1.764 0 0 0-.017-.393.422.422 0 0 0-.142-.27c-.12-.098-.305-.118-.387-.117-.377.007-.954.207-3.73 1.362Z" fill="#fff"/></svg>
